!! 00000] TT[00
!!!OTL: Hua guzi
!!!ARE: Asia, China, Shanxi
!! Ethnic Group: Han
!! Zhongguo Minge Xuan, S. 148
!!!SCT: C0214
!!!YEM: Copyright 1995, estate of Helmut Schaffrath.
**kern
*ICvox
*Ivox
*M2/4
*k[f#c#g#]
*A:
{16e
16e
16e
16f#
8a
16a
16b
=1
8cc#
8ff#
16ff#
8.ee
=2
8cc#
16cc#
16b
16a
8.f#}
=3
{16a
16a
16a
16b
8cc#
16b
16cc#
=4
8b
16b
16c#
8.e
16e
=5
8f#
16a
16f#
4e}
=6
{16e
16e
16e
16f#
8a
16a
16b
=7
8cc#
4ee
16cc#
16a
=8
4b
16cc#
16b
16a
16f#}
=9
{8e
16e
16f#
8a
16a
16b
=10
8cc#
8cc#
8b}
{16b
16g#
=11
8f#
16f#
16c#
8e
8e
=12
8f#
16a
16f#
4e}
==
!!!AGN: Xiaodiao
!! KÅrzeste VorschlÑge ausgelassen
!!!ONB: ESAC (Essen Associative Code) Database: CHINA_009
!!!AMT: simple duple
!!!AIN: vox
!!!EED: Helmut Schaffrath
!!!EEV: 1.0
*-
